X: 1472
T: Andet Brudestykke
R: polka
M: 2/4
K: Bminor
L:1/16
"Bm"d2d2 B2d2|"A"c4 c2Bc|"G"d2B2 B3c|"A"B2A2 A4|
"Bm"d2d2 B2d2|"A"c2cc c2Bc|"G"d2B2 B2Bc|"A"B2A2 A3c|
"D"d2d2 e2f2|"G"g3f "D"f2ed|"A7"c3d e2ef|"Em"g3f "Bm"f2ed|"A"c2A2 ABc2|"D"d4 d3c|
d2d2 e2f2|"G"g3f "D"f2ed|"A7"c3d e2(3def|"Em"g3f "Bm"f2ed|"A7"c2A2 ABc2|

